X: 15008
T: Geordie MacLeish
R: reel
M: 4/4
K: Dmajor
Bc|:d2 (cd) D/D/D AF|d2 (cd) Agfe|d2 (cd) D/D/D (AF)|EFGA B2 (Bc):|
|:dD D/D/D (FD)Dc|dD D/D/D Agfe|dD D/D/D (AF)dF|EFGA BABc|
dD D/D/D (FD)Dc|dAFA Bgfe|dcBA BAGF|EFGA B2 Bc:|

